packages/foundations/assets/icons/functional/images/layout/grid_16_filled.svg

<svg width="16" height="16" viewBox="0 0 16 16" fill="none" xmlns="http://www.w3.org/2000/svg">
<g clip-path="url(#clip0_2209_4237)">
<path fill-rule="evenodd" clip-rule="evenodd" d="M12.8009 7.19625H9.59919C9.15782 7.19625 8.80002 6.83845 8.80002 6.39708V3.19542C8.80002 2.98346 8.88422 2.78019 9.0341 2.63032C9.18397 2.48045 9.38724 2.39625 9.59919 2.39625H12.8009C13.2422 2.39625 13.6 2.75405 13.6 3.19542V6.39708C13.6 6.83845 13.2422 7.19625 12.8009 7.19625ZM12.8009 13.6037H9.59919C9.15782 13.6037 8.80002 13.2456 8.80002 12.8037V9.60125C8.80002 9.38907 8.88422 9.18559 9.0341 9.03556C9.18397 8.88553 9.38724 8.80125 9.59919 8.80125H12.8009C13.0128 8.80125 13.2161 8.88553 13.366 9.03556C13.5158 9.18559 13.6 9.38907 13.6 9.60125V12.8062C13.5986 13.2471 13.2413 13.6037 12.8009 13.6037ZM6.39836 7.19625H3.19919C2.75782 7.19625 2.40002 6.83844 2.40002 6.39708V3.19541C2.40002 2.75405 2.75782 2.39625 3.19919 2.39625H6.40086C6.84223 2.39625 7.20002 2.75405 7.20002 3.19541V6.39708C7.20002 6.60946 7.11548 6.81311 6.96507 6.96306C6.81466 7.113 6.61074 7.19691 6.39836 7.19625ZM6.39836 13.6038H3.19919C2.75782 13.6038 2.40002 13.2456 2.40002 12.8037V9.60125C2.40002 9.15942 2.75782 8.80125 3.19919 8.80125H6.40086C6.61281 8.80125 6.81608 8.88553 6.96595 9.03556C7.11583 9.18559 7.20002 9.38907 7.20002 9.60125V12.8062C7.19936 13.0184 7.11453 13.2216 6.96419 13.3712C6.81385 13.5208 6.61031 13.6044 6.39836 13.6038Z" fill="#1A1C1F"/>
</g>
<defs>
<clipPath id="clip0_2209_4237">
<rect width="16" height="16" fill="white"/>
</clipPath>
</defs>
</svg>

<svg xmlns="http://www.w3.org/2000/svg" width="16" height="16" fill="none"><g clip-path="url(#a)"><path fill="#1A1C1F" fill-rule="evenodd" d="M12.8 7.196H9.6a.8.8 0 0 1-.8-.799V3.195a.8.8 0 0 1 .8-.799h3.2a.8.8 0 0 1 .8.8v3.201a.8.8 0 0 1-.8.8m0 6.408H9.6a.8.8 0 0 1-.8-.8V9.6a.8.8 0 0 1 .8-.8h3.2a.8.8 0 0 1 .8.8v3.205a.8.8 0 0 1-.8.798M6.399 7.196H3.2a.8.8 0 0 1-.799-.799V3.195a.8.8 0 0 1 .8-.799h3.2a.8.8 0 0 1 .8.8v3.201a.8.8 0 0 1-.802.8m0 6.408H3.2a.8.8 0 0 1-.799-.8V9.6a.8.8 0 0 1 .8-.8h3.2a.8.8 0 0 1 .8.8v3.205a.8.8 0 0 1-.802.798" clip-rule="evenodd"/></g><defs><clipPath id="a"><path fill="#fff" d="M0 0h16v16H0z"/></clipPath></defs></svg>
